!!!!SEGMENT: pl-cz--iii-332--001_just-franciszek-kasper--dixit-dominus-dixit-dominus.krn
!!!cenid: 17xx:906
!!!COM: Just, Franciszek Kasper
!!!COM-rismID: pe30098311
!!!CDT: 1717-1760
!!!CNT: Czech
!!!OPR: Dixit Dominus
!!!OTL: Dixit Dominus
!!!OMV: 001
!!!PDT:
!!!AGN: Sacred
!!!SMS-siglum: PL-CZ
!!!SMS-shelfmark: III-332
!!!SMS-shelfwork: 001-001 M
!!!SMS-variant:
!!!SMS-altvar:
!!!NIFC-rismSourceID: 300000542
!!!NIFC-rismChildID: 300000542
!!!NIFC-islandoraID: pl-cz:37699
!!!URL-pdf-islandora: https://repozytorium.nifc.pl/islandora/object/pl-cz%3A37699/datastream/PDF/view
!!!URL-scan: https://polish.musicsources.pl/pl/lokalizacje/galeria/rekopisy/6905/1 @EN{Scan on Polish Music Sources Website} @PL{Skany w portalu Dziedzictwo Muzyki Polskiej w otwartym dostępie}
!!!ONB-nifc: UWAGA: części Dixit Dominus: Dixit Dominus, Virgam virtutis tuae, Dominare in medio, Tecum principium, Juravit Dominus, Tu es sacerdos, Dominus a dextris, Judicabit in nationibus, De torrente, Gloria patri
!!!AIN: 1 alto 2 bass 1 cbass 2 clrno 1 oboe 2 tenor 2 violn
!!!key: D
**kern	**fb	**kern	**kern	**kern	**kern	**text	**kern	**text	**kern	**text	**kern	**text	**kern	**kern	**kern
*part11	*	*part10	*part9	*part8	*part7	*part7	*part6	*part6	*part5	*part5	*part4	*part4	*part3	*part2	*part1
*staff11	*	*staff10	*staff9	*staff8	*staff7	*staff7	*staff6	*staff6	*staff5	*staff5	*staff4	*staff4	*staff3	*staff2	*staff1
*I"Fundamento.	*	*I"Violino Secundo.	*I"Violino Primo.	*I"Baſso Secundo.	*I"Baſso.	*	*I"Tenore	*	*I"Alto.	*	*I"Canto.	*	*I"Clarino 2do.	*I"Clarino Primo ex D.	*I"Oboe Solo.
*I'i	*	*I'vl II	*I'vl I	*I'B 2	*I'B	*	*I'T	*	*I'A	*	*I'S	*	*I'clno 2	*I'clno 1	*I'ob
*Icbass	*	*Ivioln	*Ivioln	*Ibass	*Ibass	*	*Itenor	*	*Ialto	*	*Itenor	*	*Iclrno	*Iclrno	*Ioboe
*ICklav	*	*ICstr	*ICstr	*ICvox	*ICvox	*	*ICvox	*	*ICvox	*	*ICvox	*	*ICbras	*ICbras	*ICww
*clefF4	*	*clefG2	*clefG2	*clefF4	*clefF4	*	*clefC4	*	*clefC3	*	*clefC1	*	*clefG2	*clefG2	*clefG2
*	*	*	*	*	*	*	*	*	*	*	*	*	*ITrd-1c-2	*ITrd-1c-2	*
*k[f#c#]	*	*k[f#c#]	*k[f#c#]	*k[f#c#]	*k[f#c#]	*	*k[f#c#]	*	*k[f#c#]	*	*k[f#c#]	*	*k[f#c#]	*k[f#c#]	*k[f#c#]
*D:	*	*D:	*D:	*D:	*D:	*	*D:	*	*D:	*	*D:	*	*D:	*D:	*D:
*M4/4	*	*M4/4	*M4/4	*M4/4	*M4/4	*	*M4/4	*	*M4/4	*	*M4/4	*	*M4/4	*M4/4	*M4/4
*met(c)	*	*met(c)	*met(c)	*met(c)	*met(c)	*	*met(c)	*	*met(c)	*	*met(c)	*	*met(c)	*met(c)	*met(c)
=1	=1	=1	=1	=1	=1	=1	=1	=1	=1	=1	=1	=1	=1	=1	=1
*	*above	*	*	*	*	*	*	*	*	*	*	*	*	*	*
!	!	!	!	!	!	!	!	!	!	!	!LO:TX:a:t=2.	!	!	!	!
!	!	!	!	!	!LO:TX:a:t=2.	!	!LO:TX:t=P:problem=kolejność i wysokość znaków przykluczowych c# F# 	!	!	!	!	!	!	!	!
!LO:TX:a:i:t=Pleno	!	!	!	!LO:TX:t=P:problem=partia występuję tylko w części "Dominus à dextris"	!	!	!	!	!	!	!LO:TX:t=P:problem=kolejność i wysokość znaków przykluczowych cc# f# 	!	!	!	!LO:TX:t=P:problem=w tej części partia ob nie występuje
4D/	.	4ff# 4a 4d/	4ff# 4a 4d/	1ryy	0r	.	0r	.	0r	.	0r	.	4dd\	4ff#\	1ryy
4D/	.	4ff# 4a 4d/	4ff# 4a 4d/	.	.	.	.	.	.	.	.	.	4dd\	4ff#\	.
4D/	.	4ff# 4a 4d/	4ff# 4a 4d/	.	.	.	.	.	.	.	.	.	4dd\	4ff#\	.
4r	.	16dd\LL	16dd\LL	.	.	.	.	.	.	.	.	.	4r	4r	.
.	.	16ee\	16ee\	.	.	.	.	.	.	.	.	.	.	.	.
.	.	16ff#\	16ff#\	.	.	.	.	.	.	.	.	.	.	.	.
.	.	16gg\JJ	16gg\JJ	.	.	.	.	.	.	.	.	.	.	.	.
=2	=2	=2	=2	=2	=2	=2	=2	=2	=2	=2	=2	=2	=2	=2	=2
!	!	!	!	!	!	!	!	!	!	!	!	!	!LO:TX:a:t=1	!LO:TX:a:t=1	!
8D\L	.	16aa\LL	16aa\LL	1ryy	.	.	.	.	.	.	.	.	1r	1r	1ryy
.	.	16ff#\JJ	16ff#\JJ	.	.	.	.	.	.	.	.	.	.	.	.
8E\	.	4dd\	4dd\	.	.	.	.	.	.	.	.	.	.	.	.
8F#\	.	.	.	.	.	.	.	.	.	.	.	.	.	.	.
8d\J|	.	8dd\	8dd\	.	.	.	.	.	.	.	.	.	.	.	.
8c#\L|	.	8cc#\L	8cc#\L	.	.	.	.	.	.	.	.	.	.	.	.
8B\|	.	8b\	8b\	.	.	.	.	.	.	.	.	.	.	.	.
8A\|	.	8a\	8a\	.	.	.	.	.	.	.	.	.	.	.	.
8G\J|	.	8g\J	8g\J	.	.	.	.	.	.	.	.	.	.	.	.
=3	=3	=3	=3	=3	=3	=3	=3	=3	=3	=3	=3	=3	=3-	=3-	=3
!	!	!	!	!	!LO:TX:a:i:t=T.	!	!	!	!LO:TX:a:i:t=T.	!	!	!	!	!	!
16F#\LL|	.	16f#/LL	16f#/LL	1ryy	2r	.	2r	.	2r	.	2r	.	2r	2r	1ryy
16E\J|	.	16e/J	16e/J	.	.	.	.	.	.	.	.	.	.	.	.
8D\J|	.	8d/J	8d/J	.	.	.	.	.	.	.	.	.	.	.	.
!LO:TX:a:i:t=T.	!	!	!	!	!	!	!	!	!	!	!	!	!	!	!
4r	.	4r	4r	.	.	.	.	.	.	.	.	.	.	.	.
!	!	!	!	!	!	!	!	!	!	!	!	!	!LO:TX:a:i:t=T.	!LO:TX:a:i:t=T.	!
4d\	.	4ff# 4a 4d/	4ff# 4a 4d/	.	4d\	Di-	4d\	Di-	4a\	Di-	4ff#\	Di-	4dd\	4ff#\	.
4D/	.	4ff# 4a 4d/	4ff# 4a 4d/	.	4D/	-xit	4d\	-xit	4a\	-xit	4ff#\	-xit	4dd\	4ff#\	.
=4	=4	=4	=4	=4	=4	=4	=4	=4	=4	=4	=4	=4	=4	=4	=4
*	*	*^	*	*	*	*	*	*	*	*	*	*	*	*	*
4D/	.	4ff# 4a 4d/	4rcyy	4ff# 4a 4d/	1ryy	2r	.	2r	.	2r	.	2r	.	4dd\	4ff#\	1ryy
4A\	.	4ee 4cc#/	4a\	4aa\	.	.	.	.	.	.	.	.	.	4a/	4ee\	.
8D\L	.	4ff# 4a 4d/	2rcyy	4ddd\	.	8D\L	di-	4d\	di-	4a\	di-	4ff#\	di-	4dd\	4ff#\	.
8E\	.	.	.	.	.	8E\J	.	.	.	.	.	.	.	.	.	.
8F#\	.	4aa\	.	4ddd\	.	8F#\L	-xit	4d\	-xit	4a\	-xit	4ff#\	-xit	4dd\	4ff#\	.
8G\J	.	.	.	.	.	8G\J	.	.	.	.	.	.	.	.	.	.
*	*	*v	*v	*	*	*	*	*	*	*	*	*	*	*	*	*
=5	=5	=5	=5	=5	=5	=5	=5	=5	=5	=5	=5	=5	=5	=5	=5
4A\	.	4ee\	4ccc#\	1ryy	4A\	Do-	4c#\	Do-	4f#\	Do-	4ee\	Do-	4a/	4ee\	1ryy
8B\L	.	4ff#\	8ddd\L	.	8B\	-mi-	8d\	-mi-	8a\	-mi-	8ff#\	-mi-	4dd\	4ff#\	.
8F#\J	.	.	8aa\J	.	8F#\	-nus	8f#\	-nus	8a\	-nus	8cc#,\	-nus	.	.	.
!LO:TX:t=P:problem=mixed beam	!	!	!	!	!	!	!	!	!	!	!	!	!	!	!
8G\L	.	4gg\	4bb\	.	8G\L	Do-	4B\	Do-	4b\	Do-	4dd\	Do-	4ee\	4gg\	.
8E\	.	.	.	.	8E\J	.	.	.	.	.	.	.	.	.	.
8A\	.	8cc#\L	8ee\L	.	8A\	-mi-	8c#\	-mi-	8a\	-mi-	8ee\	-mi-	4a/	4ee\	.
8AA/J	.	8ee\J	8aa\J	.	8AA/	-no	8c#\	-no	8a\	-no	8ee\	-no	.	.	.
=6	=6	=6	=6	=6	=6	=6	=6	=6	=6	=6	=6	=6	=6	=6	=6
8D\L	.	4ff#\	4aa\	1ryy	4D/	me-	4d\	me-	4a\	me-	4ff#\	me-	4dd\	4ff#\	1ryy
8D\	.	.	.	.	.	.	.	.	.	.	.	.	.	.	.
8F#\	.	4ff#\	4aa\	.	4D/	-o	4d\	-o	4a\	-o	4ff#,\	-o	4dd\	4ff#\	.
8A\J	.	.	.	.	.	.	.	.	.	.	.	.	.	.	.
4.d\	.	4.ff#\	4.ff#\	.	4.d\	Se-	4.d\	Se-	2r	.	4.ff#\	Se-	2r	2r	.
8c#\	.	8ee\	8ee\	.	8c#\	.	(>8e\	.	.	.	8ee\	.	.	.	.
!	!	!LO:LB:g=original	!	!	!	!	!	!	!	!	!	!	!	!	!
=7	=7	=7	=7	=7	=7	=7	=7	=7	=7	=7	=7	=7	=7	=7	=7
*	*	*	*	*	*	*	*2\right	*	*	*	*	*	*	*	*
4.B\	.	4.dd\	4.dd\	1ryy	4.B\	.	2f#\)	.	4.b\	Se-	4.dd\	.	2r	2r	1ryy
8A\	.	8cc#\	8cc#\	.	8A\	.	.	.	8a\	.	8cc#\	.	.	.	.
!LO:LB:g=original	!	!	!LO:LB:g=original	!	!	!	!	!	!	!	!	!	!	!	!
8E\L	X #	8b/L	8b\L	.	8G#X\	-de	8e\	-de	8g#X\	-de	8b,\	-de'	4ee\	4ee\	.
8G#X\	.	8g#X/J	8ee\	.	8E\	à	8e\	à	8b\	à	8ee\	à	.	.	.
8A\	.	8a\L	8cc#\	.	8A\	dex-	8e\	dex-	8a\	dex-	8ee\	dex-	8ee\L	8ee\L	.
8d\J	.	8ee\J	8aa\J	.	8D/	-tris	8e\	-tris	8a\	-tris	8dd\	-tris	8ee\J	8aa\J	.
!	!	!	!	!	!LO:LB:g=original	!	!LO:LB:g=original	!	!	!	!	!	!	!	!
=8-	=8	=8	=8	=8	=8	=8	=8	=8	=8	=8	=8	=8	=8	=8	=8
*	*	*^	*^	*	*	*	*	*	*	*	*	*	*	*	*
!	!	!	!	!LO:TX:t=P:problem=mixed beam	!	!	!	!	!	!	!	!	!	!	!	!	!
4e\	6 4	4dd\	2reyy	8b\L	2rFyy	1ryy	(>4E\	me-	2e\	me-	(>4a\	me-	(>4cc#\	me-	4ee\	4aa\	1ryy
.	.	.	.	8aa\	.	.	.	.	.	.	.	.	.	.	.	.	.
*	*	*	*	*	*	*	*	*	*	*	*	*	*custos:cc#	*	*	*	*
4E\	5 #	4b\	.	8e/	.	.	4EE/)	.	.	.	4g#X\)	.	4b\)	.	4ee\	4gg#X\	.
.	.	.	.	8gg#X\J	.	.	.	.	.	.	.	.	.	.	.	.	.
!	!	!	!	!	!	!	!	!	!	!	!	!	!LO:LB:g=original	!	!	!	!
4A\	.	4ee 4cc#/	4a\	4aa\	4reyy	.	4AA/	-is	4e\	-is	4a\	-is	4cc#\	-is	4a/	4aa\	.
4AA/	.	4ee 4cc#/	4a\	4ee 4cc#/	4a\	.	4r	.	4r	.	4r	.	4r	.	4a/	4aa\	.
!	!	!	!	!	!	!	!	!	!	!	!LO:LB:g=original	!	!	!	!	!	!
=9	=9	=9	=9	=9	=9	=9	=9	=9	=9	=9	=9	=9	=9	=9	=9	=9	=9
!	!	!	!	!	!	!	!LO:TX:a:t=2	!	!	!	!LO:TX:a:t=2	!	!LO:TX:a:t=2.	!	!	!	!
4AA/	.	4ee 4cc#/	4a\	4ee 4cc#/	4a\	1ryy	0r	.	0r	.	0r	.	0r	.	4a/	4aa\	1ryy
4r	.	16a\LL	4rAyy	16a\LL	4rAyy	.	.	.	.	.	.	.	.	.	4r	4r	.
.	.	16b\	.	16b\	.	.	.	.	.	.	.	.	.	.	.	.	.
.	.	16cc#\	.	16cc#\	.	.	.	.	.	.	.	.	.	.	.	.	.
.	.	16dd\JJ	.	16dd\JJ	.	.	.	.	.	.	.	.	.	.	.	.	.
!LO:TX:t=P:problem=mixed beam	!	!	!	!	!	!	!	!	!	!	!	!	!	!	!	!	!
8AA/L	.	16ee\LL	2reyy	16ee\LL	2rcyy	.	.	.	.	.	.	.	.	.	2r	2r	.
.	.	16cc#\JJ	.	16cc#\JJ	.	.	.	.	.	.	.	.	.	.	.	.	.
8BB/	.	4a/	.	4a/	.	.	.	.	.	.	.	.	.	.	.	.	.
8C#/	.	.	.	.	.	.	.	.	.	.	.	.	.	.	.	.	.
8A\J	.	8aa\	.	8aa\	.	.	.	.	.	.	.	.	.	.	.	.	.
*	*	*v	*v	*	*	*	*	*	*	*	*	*	*	*	*	*	*
*	*	*	*v	*v	*	*	*	*	*	*	*	*	*	*	*	*
=10	=10	=10	=10	=10	=10	=10	=10	=10	=10	=10	=10	=10	=10	=10	=10
!	!	!	!	!	!	!	!	!	!	!	!	!	!LO:TX:a:t=1	!LO:TX:a:t=1	!
8G#X\L|	.	8gg#X\L	8gg#X\L	1ryy	.	.	.	.	.	.	.	.	1r	1r	1ryy
8F#\|	.	8ff#\	8ff#\	.	.	.	.	.	.	.	.	.	.	.	.
8E\|	.	8ee\	8ee\	.	.	.	.	.	.	.	.	.	.	.	.
8D\J|	.	8dd\J	8dd\J	.	.	.	.	.	.	.	.	.	.	.	.
16C#/LL|>	.	16cc#\LL	16cc#\LL	.	.	.	.	.	.	.	.	.	.	.	.
16BB/J|>	.	16b\J	16b\J	.	.	.	.	.	.	.	.	.	.	.	.
8AA/J|>	.	8a\J	8a\J	.	.	.	.	.	.	.	.	.	.	.	.
4r	.	4r	4r	.	.	.	.	.	.	.	.	.	.	.	.
=11	=11	=11	=11	=11	=11	=11-	=11	=11-	=11	=11	=11-	=11	=11-	=11-	=11
*	*	*	*^	*	*	*	*	*	*	*	*	*	*	*	*
8A\L	.	4a/	4ee 4cc#/	4a\	1ryy	8A\L	di-	8c#\L	di-	4a\	di-	4ee\	di-	4ee\	4aa\	1ryy
8B\	.	.	.	.	.	8B\J	.	8d\J	.	.	.	.	.	.	.	.
8c#\	.	4ee 4cc# 4a/	4ee 4cc#/	4a\	.	8c#\L	-xit	8e\L	-xit	4a\	-xit	4ee,\	-xit	4ee\	4aa\	.
8A\J	.	.	.	.	.	8A\J	.	8c#\J	.	.	.	.	.	.	.	.
!	!	!	!	!	!	!	!	!	!	!	!	!	!	!LO:LB:g=original	!LO:LB:g=original	!
4d\	.	8dd\L	8ff#\L	2rgyy	.	4d\	Do-	4d\	Do-	4a\	Do-	4ff#\	Do-	4dd\	4ff#\	.
.	.	8ff#\	8aa\	.	.	.	.	.	.	.	.	.	.	.	.	.
8D\L	.	8ff#\	8aa\	.	.	8D/	-mi-	8d\	-mi-	8a\	-mi-	8ee\	-mi-	8dd\L	8ff#\L	.
8E\J	.	8dd\J	8ff#\J	.	.	8E\	-nus	8d\	-nus	8f#\	-n(us)	8a\	-nus	8dd\J	8ff#\J	.
*	*	*	*v	*v	*	*	*	*	*	*	*	*	*	*	*	*
=12	=12	=12	=12	=12	=12	=12	=12	=12	=12	=12	=12	=12	=12	=12	=12
8F#\L	X_ 6_	8dd\L	8dd\L	1ryy	8F#\L	Do-	4A/	Do-	4a\	Do-	8dd\L	Do-	8f#/L	8dd\L	1ryy
8A\	.	8a\J	8ee\	.	8E\J	.	.	.	.	.	8ee\J	.	8a/J	8ee\	.
8F#\	.	8a/L	8ff#\	.	8F#\	-mi-	8A/	-mi-	8a\	-mi-	8ff#\	-mi-	8dd\L	8ff#\	.
8D\J	.	8f#/J	8aa\J	.	8D\	-no	8A/	-no	8a\	-no	8dd,\	-no	8dd\J	8dd\J	.
8G\L	6 4	8gg\L	8bb\L	.	8G\L	me-	4B\	me-	4g\	me-	4b\	me-	4gg\	4gg\	.
8D\J	.	16dd\L	16gg\L	.	8A\J	.	.	.	.	.	.	.	.	.	.
.	.	16b\JJ	16dd\JJ	.	.	.	.	.	.	.	.	.	.	.	.
8BB/L	.	16dd\LL	16gg\LL	.	8G\L	-o	4B\	-o	4g\	-o	4b\	-o	4gg\	4gg\	.
.	.	16b\	16dd\	.	.	.	.	.	.	.	.	.	.	.	.
8GG/J	.	16dd\	16gg\	.	8F#\J	.	.	.	.	.	.	.	.	.	.
.	.	16b\JJ	16dd\JJ	.	.	.	.	.	.	.	.	.	.	.	.
!	!	!LO:LB:g=original	!	!	!	!	!	!	!	!	!	!	!	!	!
=13	=13	=13	=13	=13	=13	=13	=13	=13	=13	=13	=13	=13	=13	=13	=13
4E\	.	8gg\L	8gg\L	1ryy	4E\	Do-	4c#\	Do-	4g\	Do-	4ee\	Do-	4a/	4ee\	1ryy
.	.	8cc#\	8ee\	.	.	.	.	.	.	.	.	.	.	.	.
8D\L	.	8dd\	8ff#\	.	8D/	-mi-	8d\	-mi-	8a\	-mi-	8ff#\	-mi-	8dd\L	8ff#\L	.
8D\J	.	8dd\J	8ff#\J	.	8D/	-no	8d\	-no	8a\	-no	8ff#\	-no	8dd\J	8ff#\J	.
!LO:TX:t=P:problem=mixed beam	!	!	!	!	!	!	!	!	!	!	!	!	!	!	!
8A\L	.	16ee\LL	16ee\LL	.	8A\	me-	8e\	me-	8a\	me-	8ee\	me-	8a/L	8ee\L	.
.	.	16a\	16a\	.	.	.	.	.	.	.	.	.	.	.	.
8AA/J	.	16cc#\	16cc#\	.	8AA/	-o	8e\	-o	8a\	-o	8ee\	-o	8a/J	8ee\J	.
.	.	16ee\JJ	16ee\JJ	.	.	.	.	.	.	.	.	.	.	.	.
4r	.	16aa\LL	16aa\LL	.	4r	.	4r	.	4r	.	4r	.	4r	4r	.
.	.	16ee\	16ee\	.	.	.	.	.	.	.	.	.	.	.	.
.	.	16cc#\	16cc#\	.	.	.	.	.	.	.	.	.	.	.	.
.	.	16a\JJ	16a\JJ	.	.	.	.	.	.	.	.	.	.	.	.
!	!	!	!LO:LB:g=original	!	!	!	!	!	!	!	!	!	!	!	!
=14	=14	=14	=14	=14	=14	=14	=14	=14	=14	=14	=14	=14	=14	=14	=14
4A\	.	4cc#\	4ee\	1ryy	4A\	Se-	4c#\	Se-	4a\	Se-	4ee\	Se-	4ee\	4aa\	1ryy
4AA/	.	4ee\	4aa\	.	4AA/	-de	4c#\	-de	4a\	-de	4ee\	-de	4ee\	4aa\	.
!LO:LB:g=original	!	!	!	!	!	!	!	!	!	!	!	!	!	!	!
8r	.	8r	8r	.	8r	.	8r	.	8r	.	8r	.	8r	8r	.
8d\L	.	8ff#\L	8aa\L	.	8d\	à	8d\	à	8a\	à	8ff#\	Se-	8ff#\L	8ff#\L	.
8e\	.	8gg\	8bb\	.	8e\	dex-	8e\	dex-	8a\	dex-	8gg\	-de	8ee\	8gg\	.
*	*	*	*	*	*custos:d	*	*	*	*	*	*	*	*	*	*
8A\J	.	8ee\J	8aa\J	.	8A\	-tris	8A/	-tris	8a\	-tris	8ee\	à	8ee\J	8ee\J	.
!	!	!	!	!	!LO:LB:g=original	!	!LO:LB:g=original	!	!	!	!	!	!	!	!
=15	=15	=15	=15	=15	=15	=15	=15	=15	=15	=15	=15	=15	=15	=15	=15
4d\	.	4ff#\	4ddd\	1ryy	4d\	me-	4d\	me-	4a\	me-	4ff#\	dex-	4ff#\	4ff#\	1ryy
4A\	.	4aa\	4ccc#\	.	4A\	-is	4d\	-is	4a\	-is	4ee\	-tris	4dd\	4aa\	.
8r	.	8r	8r	.	8r	.	8r	.	8r	.	8r	.	8r	8r	.
8AA/L	.	8ee\L	8aa\L	.	8A\	à	8c#\	à	8a\	à	8ee\	à	8ff#\L	8aa\L	.
8AA/	.	8ee\	8aa\	.	8A\	dex-	8c#\	dex-	8a\	dex-	8ee\	dex-	8ff#\	8aa\	.
8AA/J	.	8ee\J	8aa\J	.	8A\	-tris	8c#\	-tris	8a\	-tris	8ee\	-tris	8ff#\J	8aa\J	.
!	!	!	!	!	!	!	!	!	!LO:LB:g=original	!	!LO:LB:g=original	!	!	!	!
=16	=16	=16	=16	=16	=16	=16	=16	=16	=16	=16	=16	=16	=16	=16	=16
*	*	*	*	*	*	*	*	*	*2\right	*	*2\right	*	*2\right	*2\right	*
4D/	.	8ff#\L	8ff#\L	1ryy	4D/	me-	2d\	me-	2a\	me-	2ff#\	me-	2dd\	2ff#\	1ryy
.	.	8ff#\	8ddd\	.	.	.	.	.	.	.	.	.	.	.	.
4d\	.	8ff#\	8ddd\	.	4d\	.	.	.	.	.	.	.	.	.	.
.	.	8ff#\J	8ddd\J	.	.	.	.	.	.	.	.	.	.	.	.
4E\	.	16ee\LL	16ccc#\LL	.	4E\	.	2c#\	.	2a\	.	2ee\	.	2a/	2ee\	.
.	.	16ff#\	16ddd\	.	.	.	.	.	.	.	.	.	.	.	.
.	.	16ee\	16ccc#\	.	.	.	.	.	.	.	.	.	.	.	.
.	.	16dd\JJ	16bb\JJ	.	.	.	.	.	.	.	.	.	.	.	.
4e\	.	16cc#\LL	16aa\LL	.	4e\	.	.	.	.	.	.	.	.	.	.
.	.	16dd\	16bb\	.	.	.	.	.	.	.	.	.	.	.	.
.	.	16ee\	16aa\	.	.	.	.	.	.	.	.	.	.	.	.
.	.	16cc#\JJ	16gg\JJ	.	.	.	.	.	.	.	.	.	.	.	.
=17	=17	=17	=17	=17	=17	=17	=17	=17	=17	=17	=17	=17	=17	=17	=17
*	*	*	*	*	*2\right	*	*	*	*	*	*	*	*	*	*
4F#\	.	8dd\L	8ff#\L	1ryy	2F#\	.	2A\	.	2f#\	.	2dd\	.	4f#/	4dd\	1ryy
.	.	8ff#\	8dd\	.	.	.	.	.	.	.	.	.	.	.	.
4f#\	.	8gg\	8dd\	.	.	.	.	.	.	.	.	.	4r	4r	.
.	.	8gg\J	8dd\J	.	.	.	.	.	.	.	.	.	.	.	.
4G\	.	8gg\L	8gg\L	.	2G\	.	2e\	.	2b\	.	2gg\	.	2r	2r	.
.	.	16gg\L	16gg\L	.	.	.	.	.	.	.	.	.	.	.	.
.	.	16ff#\JJ	16aa\JJ	.	.	.	.	.	.	.	.	.	.	.	.
4G\	.	16gg\LL	16bb\LL	.	.	.	.	.	.	.	.	.	.	.	.
.	.	16aa\	16ccc#\	.	.	.	.	.	.	.	.	.	.	.	.
.	.	16gg\	16bb\	.	.	.	.	.	.	.	.	.	.	.	.
.	.	16ff#\JJ	16ddd\JJ	.	.	.	.	.	.	.	.	.	.	.	.
=18	=18	=18	=18	=18	=18	=18	=18	=18	=18	=18	=18	=18	=18	=18	=18
8A\L	.	8ee\L	8ccc#\L	1ryy	8A\L	.	4c#\	.	1a	.	4ee\	.	4a/	4ee\	1ryy
8c#\	.	8ee\	8aa\	.	8c#\	.	.	.	.	.	.	.	.	.	.
8d\	.	8ff#\	8ddd\	.	8d\	.	4d\	.	.	.	4ff#\	.	4dd\	4ff#\	.
8G\J	.	8dd\J	8ff#\J	.	8G\J	.	.	.	.	.	.	.	.	.	.
4A\	.	8cc#\L	8ee\L	.	4A\	.	2c#\	.	.	.	2ee\	.	2a/	2ee\	.
.	.	8aa\	8ddd\J	.	.	.	.	.	.	.	.	.	.	.	.
!	!	!	!LO:TX:t=P:problem=mixed beam	!	!	!	!	!	!	!	!	!	!	!	!
4AA/	.	8ee\	8a/L	.	4AA/	.	.	.	.	.	.	.	.	.	.
*	*	*custos:ff#	*	*	*	*	*	*	*	*	*	*	*	*	*
.	.	8gg\J	8ccc#\J	.	.	.	.	.	.	.	.	.	.	.	.
!	!	!LO:LB:g=original	!	!	!	!	!	!	!	!	!	!	!	!	!
=19	=19	=19	=19	=19	=19	=19	=19	=19	=19	=19	=19	=19	=19	=19	=19
8D/	.	8ff#\	8ddd\	1ryy	4D/	-is.	4d\	-is	4a\	-is	4ff#\	-is	4dd\	4ff#\	1ryy
4d\	.	4dd\	4dd\	.	.	.	.	.	.	.	.	.	.	.	.
.	.	.	.	.	4r	.	4r	.	4r	.	4r	.	4r	4r	.
8d\	.	8dd\	8dd\	.	.	.	.	.	.	.	.	.	.	.	.
8c#\L|	.	8cc#\L	8cc#\L	.	2r	.	2r	.	2r	.	2r	.	2r	2r	.
8B\|	.	8b\J	8b\J	.	.	.	.	.	.	.	.	.	.	.	.
8A\|	.	8a/L	8a/L	.	.	.	.	.	.	.	.	.	.	.	.
8G\J|	.	8g/J	8g/J	.	.	.	.	.	.	.	.	.	.	.	.
!	!	!	!	!	!	!	!	!	!	!	!	!	!LO:LB:g=original	!LO:LB:g=original	!
=20	=20	=20	=20	=20	=20	=20	=20	=20	=20	=20	=20	=20	=20	=20	=20
!	!	!	!	!	!	!	!	!	!	!	!	!	!	!LO:TX:t=P:problem=skreślony takt	!
16F#\LL|	.	16f#/LL	16f#/LL	1ryy	2r	.	2r	.	2r	.	2r	.	2r	2r	1ryy
16E\J|	.	16e/J	16e/J	.	.	.	.	.	.	.	.	.	.	.	.
8D\J|	.	8d/J	8d/J	.	.	.	.	.	.	.	.	.	.	.	.
!LO:TX:t=P:problem=mixed beam	!	!	!	!	!	!	!	!	!	!	!	!	!	!	!
8BB/L	.	4r	4r	.	.	.	.	.	.	.	.	.	.	.	.
8F#\J	X #	.	.	.	.	.	.	.	.	.	.	.	.	.	.
!	!	!	!LO:LB:g=original	!	!	!	!	!	!	!	!	!	!	!	!
4B\	.	16b\LL	16bb\LL	.	4B\	Do-	4d\	Do-	4b\	Do-	4ff#\	Do-	8f#/L	8f#/L	.
.	.	16dd\	16ff#\	.	.	.	.	.	.	.	.	.	.	.	.
.	.	16ff#\	16dd\	.	.	.	.	.	.	.	.	.	16f#/L	16f#/L	.
.	.	16b\JJ	16b\JJ	.	.	.	.	.	.	.	.	.	16f#/JJ	16f#/JJ	.
4F#\	.	16a#X\LL	16aa#X\LL	.	4F#\	-nec	4c#\	-nec	4a#X\	-nec	4ff#\	-nec	8f#/L	8f#/L	.
.	.	16cc#\	16ff#\	.	.	.	.	.	.	.	.	.	.	.	.
.	.	16ee\	16cc#\	.	.	.	.	.	.	.	.	.	8f#/J	8f#/J	.
.	.	16cc#\JJ	16a#X\JJ	.	.	.	.	.	.	.	.	.	.	.	.
=21	=21	=21	=21	=21	=21	=21	=21	=21	=21	=21	=21	=21	=21	=21	=21
8D/L	.	8b\L	8bb\L	1ryy	8D/	po-	8d\	po-	8b\	po-	8ff#\	po-	4f#/	4f#/	1ryy
8BB/J	.	8ff#\	8ff#\	.	8BB/	-nam	8d\	-nam	8b\	-nam	8ff#\	-nam	.	.	.
4r	.	8dd\	8dd\	.	4r	.	4r	.	4r	.	4r	.	4r	4r	.
.	.	8b\J	8b\J	.	.	.	.	.	.	.	.	.	.	.	.
*	*	*	*	*	*	*ij	*	*ij	*	*	*	*	*	*	*
!LO:LB:g=original	!	!	!	!	!	!	!	!	!	!	!	!	!	!	!
4A\	.	16an\LL	16aan\LL	.	4A\	Do-	4c#\	Do-	4an\	do-	4ee\	do-	8a/L	8ee\L	.
.	.	16cc#\	16ee\	.	.	.	.	.	.	.	.	.	.	.	.
.	.	16ee\	16cc#\	.	.	.	.	.	.	.	.	.	16a/L	16ee\L	.
.	.	16cc#\JJ	16a\JJ	.	.	.	.	.	.	.	.	.	16a/JJ	16ee\JJ	.
4E\	X #	16ee\LL	16gg#X\LL	.	4E\	-nec	4B\	-nec	4g#X\	-nec	4ee\	-nec	8ee\L	8ee\L	.
.	.	16b\	16ee\	.	.	.	.	.	.	.	.	.	.	.	.
.	.	16ee\	16b\	.	.	.	.	.	.	.	.	.	8ee\J	8ee\J	.
!	!	!	!LO:TX:a:t=P:problem=# above	!	!	!	!	!	!	!	!	!	!	!	!
.	.	16b\JJ	16g#X\JJ	.	.	.	.	.	.	.	.	.	.	.	.
=22	=22	=22	=22	=22	=22	=22	=22	=22	=22	=22	=22	=22	=22	=22	=22
8C#/L	.	8cc#\L	8aa\L	1ryy	8C#/	po-	8c#\	po-	8a\	po-	8ee\	po-	4a/	4ee\	1ryy
8AA/J	.	8ee\	8ee\	.	8AA/	-nam	8c#\	-nam	8a\	-nam	8ee\	-nam	.	.	.
*	*	*	*	*	*	*Xij	*	*Xij	*	*	*	*	*	*	*
*	*	*	*	*	*custos:G	*	*	*	*	*	*	*	*	*	*
4r	.	8cc#\	8cc#\	.	4r	.	4r	.	4r	.	4r	.	4r	4r	.
.	.	8a\J	8a\J	.	.	.	.	.	.	.	.	.	.	.	.
!	!	!	!	!	!LO:LB:g=original	!	!LO:LB:g=original	!	!	!	!	!	!	!	!
4G\	.	16b\LL	16ggn\LL	.	4G\	i-	4B\	i-	4g\	i-	4dd\	i-	8dd\L	8dd\L	.
.	.	16dd\	16dd\	.	.	.	.	.	.	.	.	.	.	.	.
.	.	16b\	16b\	.	.	.	.	.	.	.	.	.	16dd\L	16dd\L	.
.	.	16g\JJ	16g\JJ	.	.	.	.	.	.	.	.	.	16dd\JJ	16dd\JJ	.
4F#\	.	16a\LL	16ff#\LL	.	4F#\	-ni-	4A\	-ni-	4f#\	-ni-	4dd\	-ni-	8dd\L	8dd\L	.
.	.	16dd\	16dd\	.	.	.	.	.	.	.	.	.	.	.	.
.	.	16a\	16a\	.	.	.	.	.	.	.	.	.	8dd\J	8dd\J	.
.	.	16f#\JJ	16f#\JJ	.	.	.	.	.	.	.	.	.	.	.	.
=23	=23	=23	=23	=23	=23	=23	=23	=23	=23	=23	=23	=23	=23	=23	=23
4E\	5 4	8b\L	8gg\L	1ryy	4E\	-mi-	4c#\	-mi-	4a\	-mi-	4gg\	-mi-	4a/	4ee\	1ryy
.	.	8cc#\	8ee\	.	.	.	.	.	.	.	.	.	.	.	.
4D/	.	8dd\	8ff#\	.	4D/	-cos	4d\	-cos	4a\	-cos	4ff#\	-cos	4dd\	4ff#\	.
.	.	8ff#\J	8dd\J	.	.	.	.	.	.	.	.	.	.	.	.
4C#/	.	8cc#\L	8ee\L	.	(<4C#/	tu-	(>4e\	tu-	(>4cc#\	tu-	(>4ee\	tu-	4ee\	4gg\	.
.	.	8ee\	8aa\	.	.	.	.	.	.	.	.	.	.	.	.
4D/	.	8dd\	8ff#\	.	4D/)	.	4d\)	.	4a\)	.	4ff#\)	.	4dd\	4ff#\	.
.	.	8ff#\J	8dd\J	.	.	.	.	.	.	.	.	.	.	.	.
=24	=24	=24	=24	=24	=24	=24	=24	=24	=24	=24	=24	=24	=24	=24	=24
4AA/	.	8a/L	8a/L	1ryy	4AA/	-os	4c#\	-os	4a\	-os	4ee\	-os	8a/L	8ee\L	1ryy
.	.	16b/L	16b/L	.	.	.	.	.	.	.	.	.	16a/L	16ee\L	.
.	.	16cc#/JJ	16cc#/JJ	.	.	.	.	.	.	.	.	.	16a/JJ	16ee\JJ	.
4r	.	16dd\LL	16dd\LL	.	4r	.	4r	.	4r	.	4r	.	8a/L	8ee\L	.
.	.	16ee\	16ee\	.	.	.	.	.	.	.	.	.	.	.	.
.	.	16ff#\	16ff#\	.	.	.	.	.	.	.	.	.	8a/J	8ee\J	.
.	.	16gg\JJ	16gg\JJ	.	.	.	.	.	.	.	.	.	.	.	.
!	!	!LO:LB:g=original	!	!	!	!	!	!	!	!	!	!	!	!	!
8r	.	8aa\L	8aa\L	.	8r	.	8r	.	8r	.	8r	.	4a/	4ee\	.
8A\L	.	8ee\	8ee\	.	8A\	Sca-	8c#\	Sca-	8a\	Sca-	8ee\	Sca-	.	.	.
8A\	.	8cc#\	8cc#\	.	8A\	-bel-	8c#\	-bel-	8a\	-bel-	8ee\	-bel-	4r	4r	.
8A\J	.	8a\J	8a\J	.	8A\	-lum	8c#\	-lum	8a\	-l(um)	8ee\	-l(um)	.	.	.
!	!	!	!	!	!	!	!	!	!LO:LB:g=original	!	!LO:LB:g=original	!	!	!	!
=25	=25	=25	=25	=25	=25	=25	=25	=25	=25	=25	=25	=25	=25	=25	=25
!LO:TX:t=P:problem=mixed beam	!	!	!	!	!	!	!	!	!	!	!	!	!	!	!
8d\L	.	8dd\L	8dd\L	1ryy	4d\	pe-	4d\	pe-	4a\	pe-	4ff#\	pe-	8dd\L	8ff#\L	1ryy
8D/	.	16ee\L	16ee\L	.	.	.	.	.	.	.	.	.	16dd\L	16ff#\L	.
.	.	16ff#\JJ	16ff#\JJ	.	.	.	.	.	.	.	.	.	16dd\JJ	16ff#\JJ	.
8D/	.	16gg\LL	16gg\LL	.	4D/	-d(um)	4d\	-dum	4a\	-dum	4ff#\	-dum	8dd\L	8ff#\L	.
.	.	16aa\	16aa\	.	.	.	.	.	.	.	.	.	.	.	.
8D/J	.	16bb\	16bb\	.	.	.	.	.	.	.	.	.	8dd\J	8ff#\J	.
.	.	16ccc#\JJ	16ccc#\JJ	.	.	.	.	.	.	.	.	.	.	.	.
!	!	!	!LO:LB:g=original	!	!	!	!	!	!	!	!	!	!	!	!
8D/L	.	8ddd\L	8ddd\L	.	8r	.	8r	.	8r	.	8r	.	8dd\L	8ff#\L	.
8D/	.	8aa\	8aa\	.	8D/	Sca-	8d\	Sca-	8a\	Sca-	8ff#\	Sca-	8dd\	8ff#\	.
8D/	.	8ff#\	8ff#\	.	8D/	-bel-	8d\	-bel-	8a\	-bel-	8ff#\	-bel-	8dd\	8ff#\	.
8D/J	.	8dd\J	8dd\J	.	8D/	-lum	8d\	-l(um)	8a\	-l(um)	8ff#\	-lum	8dd\J	8ff#\J	.
=26	=26	=26	=26	=26	=26	=26	=26	=26	=26	=26	=26	=26	=26	=26	=26
4G\	.	8gg\L	8bb\L	1ryy	(>4G\	pe-	(>4d\	pe-	(>4b\	pe-	2dd\	pe-	4gg\	4bb\	1ryy
.	.	8dd\	8dd\	.	.	.	.	.	.	.	.	.	.	.	.
4F#\	.	8ff#\	8aa\	.	4F#\)	.	4f#\)	.	4a\)	.	.	.	4ff#\	4aa\	.
.	.	8aa\J	8dd\J	.	.	.	.	.	.	.	.	.	.	.	.
4E\	.	8ee\L	8gg\L	.	4E\	-dum	4B\	-dum	4g\	-dum	4ee,\	-dum	4ee\	4gg\	.
.	.	8cc#\	8ee\	.	.	.	.	.	.	.	.	.	.	.	.
4D/	.	8dd\	8ff#\	.	4D/	tu-	4d\	tu-	4a\	tu-	4ff#\	tu-	4dd\	4ff#\	.
.	.	8ff#\J	8dd\J	.	.	.	.	.	.	.	.	.	.	.	.
=27	=27	=27	=27	=27	=27	=27	=27	=27	=27	=27	=27	=27	=27	=27	=27
!	!	!	!LO:TX:t=P:problem=mixed beam	!	!	!	!	!	!	!	!	!	!	!	!
4A\	.	4gg\	8a/L	1ryy	4A\	-o-	2c#\	-o-	2a\	-o-	2ee\	-o-	2a/	2ee\	1ryy
.	.	.	8ddd\	.	.	.	.	.	.	.	.	.	.	.	.
4AA/	.	4ee\	8aa\	.	4AA/	.	.	.	.	.	.	.	.	.	.
.	.	.	8ccc#\J	.	.	.	.	.	.	.	.	.	.	.	.
!	!	!	!	!	!	!	!	!	!	!	!	!	!LO:LB:g=original	!	!
!LO:TX:t=P:problem=mixed beam	!	!	!	!	!	!	!	!	!	!	!	!	!	!	!
8D/L	.	8ff#L 8a 8d/	8ddd\L	.	8D/	-r(um)	8d\	-rum	8a,<\	-rum	8ff#,\	-rum	4dd\	4ff#\	.
8d\	.	8ff# 8a 8d/	8ddd\	.	8d\	Sca-	8d\	Sca-	8a\	Sca-	8ff#\	Sca-	.	.	.
8d\	.	8ff# 8a 8d/	8ddd\	.	8d\	-bel-	8d\	-bel-	8a\	-bel-	8ff#\	-bel-	4r	4r	.
*	*	*	*	*	*	*	*custos:d	*	*	*	*	*	*	*	*
8d\J	.	8ff#J 8a 8d/	8ddd\J	.	8d\	-l(um)	8d\	-lum	8a\	-lum	8ff#\	-l(um)	.	.	.
!	!	!	!	!	!	!	!	!LO:LB:g=original	!	!	!	!	!	!	!
=28	=28	=28	=28	=28	=28	=28	=28	=28	=28	=28	=28	=28	=28	=28	=28
8d\L	.	16ff#\LL	16ddd\LL	1ryy	8d\	pe-	8d\	pe-	8a\	pe-	8ff#\	pe-	8r	8r	1ryy
.	.	16dd\	16dd\	.	.	.	.	.	.	.	.	.	.	.	.
8d\	.	16ee\	16ee\	.	8D/	-d(um)	8d\	-dum	8a\	-d(um)	8ff#\	-dum	8dd\L	8ff#\L	.
.	.	16ff#\JJ	16ff#\JJ	.	.	.	.	.	.	.	.	.	.	.	.
8d\	.	16gg\LL	16gg\LL	.	4r	.	4r	.	4r	.	4r	.	8dd\	8ff#\	.
.	.	16aa\	16aa\	.	.	.	.	.	.	.	.	.	.	.	.
8d\J	.	16bb\	16bb\	.	.	.	.	.	.	.	.	.	8dd\J	8ff#\J	.
.	.	16ccc#\JJ	16ccc#\JJ	.	.	.	.	.	.	.	.	.	.	.	.
!	!	!	!	!	!	!	!	!	!	!	!	!	!	!LO:LB:g=original	!
8d\L	.	8ddd\L	8ddd\L	.	8r	.	8r	.	8r	.	8r	.	8dd\L	8ff#\L	.
8d\	.	8dd\	8aa\	.	8D/	Sca-	8f#\	Sca-	8a\	Sca-	8ff#\	Sca-	8dd\J	8ff#\J	.
8d\	.	8ff#\	8ff#\	.	8D/	-bel-	8f#\	-bel-	8a\	-bel-	8ff#\	-bel-	4r	4r	.
*	*	*	*	*	*custos:G	*	*	*	*	*	*	*	*	*	*
8d\J	.	8aa\J	8dd\J	.	8D/	-lum	8f#\	-lum	8a\	-lum	8ff#\	-lum	.	.	.
!LO:LB:g=original	!	!	!	!	!LO:LB:g=original	!	!	!	!	!	!	!	!	!	!
=29	=29	=29	=29	=29	=29	=29	=29	=29	=29	=29	=29	=29	=29	=29	=29
4G\	X 6	8cc#\L	8ee\L	1ryy	4G\	pe-	4B\	pe-	4b\	pe-	4gg\	pe-	4ee\	4gg\	1ryy
.	.	8ee\	8aa\	.	.	.	.	.	.	.	.	.	.	.	.
8D/L	.	8dd\	8ff#\	.	8D/	-d(um)	8d\	-d(um)	8a\	-d(um)	8ff#,\	-d(um)	4ff#\	4aa\	.
8D/J	.	8ff#\J	8dd\J	.	8D/	tu-	8d\	tu-	8a\	tu-	8ff#\	tu-	.	.	.
!	!	!	!LO:TX:t=P:problem=mixed beam	!	!	!	!	!	!	!	!	!	!	!	!
4A\	.	8ee\L	8a/L	.	4A\	-o-	2c#\	-o-	2a\	-o-	2ee\	-o-	2ee\	2aa\	.
.	.	8cc#\	8aa\	.	.	.	.	.	.	.	.	.	.	.	.
4AA/	.	8ee\	8a/	.	4AA/	.	.	.	.	.	.	.	.	.	.
.	.	8gg\J	8ccc#\J	.	.	.	.	.	.	.	.	.	.	.	.
=30	=30	=30	=30	=30	=30	=30	=30	=30	=30	=30	=30	=30	=30	=30	=30
!LO:TX:t=P:problem=mixed beam	!	!	!	!	!	!	!	!	!	!	!	!	!	!	!
8D/L	.	8ff#L 8a 8d/	8ddd\L	1ryy	8D/	-rum	8d\	-rum	8a\	-rum	8ff#,\	-rum'	4ff#\	4aa\	1ryy
8d\	.	16ff#L 16a 16d/	16ddd\L	.	8d\	Sca-	8d\	Sca-	8a\	Sca-	8ff#\	Sca-	.	.	.
.	.	16ff#JJ 16a 16d/	16ddd\JJ	.	.	.	.	.	.	.	.	.	.	.	.
8d\	.	8ff#L 8a 8d/	8ddd\L	.	8d\	-bel-	8d\	-bel-	8a\	-bel-	8ff#\	-bel-	4r	4r	.
8d\J	.	8ff#J 8a 8d/	8ddd\J	.	8d\	-l(um)	8d\	-lum	8a\	-l(um)	8ff#\	-l(um)	.	.	.
!	!	!LO:LB:g=original	!	!	!	!	!	!	!	!	!	!	!	!	!
8d\L	.	16dd\LL	8ddd\L	.	8d\	pe-	8d\	pe-	8a\	pe-	8ff#\	pe-	8r	8r	.
.	.	16ddd\	.	.	.	.	.	.	.	.	.	.	.	.	.
8d\	.	16ccc#\	16ccc#\L	.	8D/	-dum	8d\	-dum	8a\	-d(um)	8ff#\	-dum	8dd\L	8ff#\L	.
.	.	16bb\JJ	16bb\JJ	.	.	.	.	.	.	.	.	.	.	.	.
8d\	.	16aa\LL	16aa\LL	.	4r	.	4r	.	4r	.	4r	.	8dd\	8ff#\	.
.	.	16gg\	16gg\	.	.	.	.	.	.	.	.	.	.	.	.
8d\J	.	16ff#\	16ff#\	.	.	.	.	.	.	.	.	.	8dd\J	8ff#\J	.
*	*	*	*custos:dd	*	*	*	*	*	*	*	*	*	*	*	*
.	.	16ee\JJ	16ee\JJ	.	.	.	.	.	.	.	.	.	.	.	.
!	!	!	!LO:LB:g=original	!	!	!	!	!	!LO:LB:g=original	!	!LO:LB:g=original	!	!	!	!
=31	=31	=31	=31	=31	=31	=31	=31	=31	=31	=31	=31	=31	=31	=31	=31
!	!	!	!LO:TX:t=P:problem=brak połowy taktu nr 31	!	!	!	!	!	!	!	!	!	!	!	!
8d\L	.	8dd\L	2ryy	1ryy	8r	.	8r	.	8r	.	8r	.	8dd\L	8ff#\L	1ryy
8d\	.	8ff#\	.	.	8D/	Sca-	8f#\	Sca-	8a\	Sca-	8ff#\	Sca-	8dd\J	8ff#\J	.
8d\	.	8aa\	.	.	8D/	-bel-	8f#\	-bel-	8a\	-bel-	8ff#\	-bel-	4r	4r	.
8d\J	.	8dd\J	.	.	8D/	-l(um)	8f#\	-l(um)	8a\	-lum	8ff#\	-l(um)	.	.	.
4G\	X 6	8gg\L	8bb\L	.	4G\	pe-	4B\	pe-	8b\L	pe-	4ee\	pe-	8r	8r	.
.	.	8bb\	8ee\	.	.	.	.	.	8g\J	.	.	.	8dd\L	8ff#\L	.
8F#\L	X 6	8aa\	8ff#\	.	8F#\	-dum	8d\	-dum	8a\	-dum	8ff#\	-dum	8dd\	8ff#\	.
8D\J	.	8dd\J	8aa\J	.	8D/	tu-	8d\	tu-	8b\	tu-	8ff#\	tu-	8dd\J	8ff#\J	.
=32	=32	=32	=32	=32	=32	=32	=32	=32	=32	=32	=32	=32	=32	=32	=32
!	!	!	!LO:TX:t=P:problem=mixed beam	!	!	!	!	!	!	!	!	!	!	!	!
4A\	X 7	8cc#\L	8a/L	1ryy	4A\	-o-	2c#\	-o-	2a\	-o-	2ee\	-o-	2a/	2ee\	1ryy
.	.	8ee\	8aa\	.	.	.	.	.	.	.	.	.	.	.	.
4AA/	.	8gg\	8a/	.	4AA/	.	.	.	.	.	.	.	.	.	.
.	.	8ee\J	8gg\J	.	.	.	.	.	.	.	.	.	.	.	.
4D/	.	4ff# 4a 4d/	4ff# 4a 4d/	.	4D/	-rum	4d\	-rum	4a\	-rum	4ff#\	-rum	4dd\	4ff#\	.
4D/	.	4ff# 4a 4d/	4ff# 4a 4d/	.	4r	.	4r	.	4r	.	4r	.	4dd\	4ff#\	.
=33	=33	=33	=33	=33	=33	=33	=33	=33	=33	=33	=33	=33	=33	=33	=33
!	!	!	!	!	!LO:TX:a:t=3.	!	!	!	!	!	!LO:TX:a:t=3.	!	!	!	!
4D/	.	4ff# 4a 4d/	4ff# 4a 4d/	1ryy	0r	.	0r	.	0r	.	0r	.	4dd\	4ff#\	1ryy
4r	.	16dd\LL	16dd\LL	.	.	.	.	.	.	.	.	.	4r	4r	.
.	.	16ee\	16ee\	.	.	.	.	.	.	.	.	.	.	.	.
.	.	16ff#\	16ff#\	.	.	.	.	.	.	.	.	.	.	.	.
.	.	16gg\JJ	16gg\JJ	.	.	.	.	.	.	.	.	.	.	.	.
8D\L	.	16aa\LL	16aa\LL	.	.	.	.	.	.	.	.	.	2r	2r	.
.	.	16ff#\JJ	16ff#\JJ	.	.	.	.	.	.	.	.	.	.	.	.
8E\	.	4dd\	4dd\	.	.	.	.	.	.	.	.	.	.	.	.
8F#\	.	.	.	.	.	.	.	.	.	.	.	.	.	.	.
8d\J	.	8dd\	8dd\	.	.	.	.	.	.	.	.	.	.	.	.
=34	=34	=34	=34	=34	=34	=34	=34	=34	=34	=34	=34	=34	=34	=34	=34
*	*	*^	*^	*	*	*	*	*	*	*	*	*	*	*	*
!	!	!	!	!LO:N:vis=16	!	!	!	!	!	!	!	!	!	!	!	!	!
8c#\L	.	8cc#\L	2rcyy	8cc#\L	2rcyy	1ryy	.	.	.	.	.	.	.	.	2r	2r	1ryy
!	!	!	!	!LO:N:vis=16	!	!	!	!	!	!	!	!	!	!	!	!	!
8B\	.	8b\	.	8b\	.	.	.	.	.	.	.	.	.	.	.	.	.
!	!	!	!	!LO:N:vis=16	!	!	!	!	!	!	!	!	!	!	!	!	!
8A\	.	8a\	.	8a\	.	.	.	.	.	.	.	.	.	.	.	.	.
!	!	!	!	!LO:N:vis=16	!	!	!	!	!	!	!	!	!	!	!	!	!
8G\J	.	8g\J	.	8g\J	.	.	.	.	.	.	.	.	.	.	.	.	.
8F#\L	.	4ff# 4a 4d/	4rcyy	4ff# 4a 4d/	4rcyy	.	.	.	.	.	.	.	.	.	4dd\	4ff#\	.
16E\L	.	.	.	.	.	.	.	.	.	.	.	.	.	.	.	.	.
16D\JJ	.	.	.	.	.	.	.	.	.	.	.	.	.	.	.	.	.
!LO:TX:t=P:problem=mixed beam	!	!	!	!	!	!	!	!	!	!	!	!	!	!	!	!	!
8A\L	.	4ee 4cc#/	4a\	4ee 4cc#/	4a\	.	.	.	.	.	.	.	.	.	4a/	4ee\	.
8AA/J	.	.	.	.	.	.	.	.	.	.	.	.	.	.	.	.	.
*	*	*v	*v	*	*	*	*	*	*	*	*	*	*	*	*	*	*
*	*	*	*v	*v	*	*	*	*	*	*	*	*	*	*	*	*
=35	=35	=35	=35	=35	=35	=35	=35	=35	=35	=35	=35	=35	=35	=35	=35
8D/L	.	8ff#L 8a 8d/	8ff#L 8a 8d/	1ryy	1r	.	1r	.	1r	.	1r	.	8dd\L	8ff#\L	1ryy
16D/L	.	16ff#L 16a 16d/	16ff#L 16a 16d/	.	.	.	.	.	.	.	.	.	16dd\L	16ff#\L	.
16D/JJ	.	16ff#JJ 16a 16d/	16ff#JJ 16a 16d/	.	.	.	.	.	.	.	.	.	16dd\JJ	16ff#\JJ	.
8D/L	.	8ff#L 8a 8d/	8ff#L 8a 8d/	.	.	.	.	.	.	.	.	.	8dd\L	8ff#\L	.
8D/J	.	8ff#J 8a 8d/	8ff#J 8a 8d/	.	.	.	.	.	.	.	.	.	8dd\J	8ff#\J	.
4D/	.	4ff# 4a 4d/	4ff# 4a 4d/	.	.	.	.	.	.	.	.	.	4dd\	4ff#\	.
4r	.	4r	4r	.	.	.	.	.	.	.	.	.	4r	4r	.
==;<	==	==	==	==	==	==	==	==	==	==	==	==	==	==	==
*-	*-	*-	*-	*-	*-	*-	*-	*-	*-	*-	*-	*-	*-	*-	*-
!!!system-decoration: [(s1)][(s2,s3)][(s4,s5,s6,s7,s8)][(s9,s10)][(s11)]
!!!RDF**kern: | = vertical stroke
!!!RDF**kern: > = above
!!!RDF**kern: < = below
!!!ENC: Andrzej Kubiczek
!!!END: 2020-08-02
!!!EED: Antoni Szymański
!!!EEV: 2022-03-03
!!!YEC: Copyright 2022 Narodowy Instytut Fryderyka Chopina (https://polishscores.org)
!!!YEM: License CC-BY-4.0 (https://creativecommons.org/licenses/by/4.0)
